X:1
L:1/8
Q:1/8=120
M:6/8
K:G
""^A"" d | GAB cBc | edc BAG | cBA d2 c | B>AB G2 ||""^B"" d | efg efg | efg afd | d>ed def | gfe dBG | 
 GAB cBc | edc BAG | cBA d2 c | B>AB G2 ||""^C"" d | g3 c3 | efg B3 | cBA d2 c | B>AB G2 ||
